X: 2
T:Health to the Ladies - G
M:4/4
L:1/4
Q:140
R:Polka
K:G
E>FEF|GEEG|FDDF |G/2F/2E/2D/2E B,|
E>FEF|GEEG|A2GF|EDE2:|
B>GG/2B |AFFG| AB/2A/2G F|EFGA|
B>GG/2B |AFFG|AB/2A/2GF |EDE2:|
